X: 128006
T: WHEN JOHNNY COMES MARCHING HOME
%R: jig
B: James Kerr "Merry Melodies" v.1 p.28 s.0 #6
Z: 2016 John Chambers <jc:trillian.mit.edu>
M: 6/8
L: 1/8
K: Am
uE |\
vA2vB uc2ud | ecA ecA | G2A B2c | ded dBG |\
A2B c2d | ecA Bcd | efe dcB | A2z a2 ||\
uA |\
EAA uA2uB | c2B c2A | vG3- G3vE | uG3- G2uA |
EAA A2B | c2B c2d | ve3- e2vc | ue3- e2uc |\
ve2ve edc | d2d d2B | c2c cBA | B2B Bcd |\
e3 d3 | c3 B3 | EAA A2^G | A2z a2 |]

%%sep 1 1 500
%%sep 1 1 500

